X:37
T:Bossa Dorado
C:Dorado Schmitt
N:TablEdited by Daniel Quemener and Dave Berry
L:1/8
Q:1/4=180
M:4/4
K:F
Af2f z4 | z2 ab af e_A | f2 _Ae z4 | _A2 f2 Af2A | f2 _Ae z4 | z2 ef ge cA | (3GAG Fz4z | 
z8 | Af2f z4 | z2 ab af e_A | f2 _Ae z4 | _A2 f2 Af2A | f2 _Ae z4 | z2 ef2e fg | 
a8 | z7/1d' | c'_e' z2 z3e' | c'_e' ze' c'e' bc' | d'3[_e'c'] [d'=b]z [a_g][_b=g] | 
z[ed] [fd]z [_d_A][=d3=A3] | _A/=A/B/c/ _d/=d/e/f/ g/a/b/f'2z/ | z3d' _d'e' b2 | 
a2 ag ef [gf][gf] | [gf][gf] [gf][fd] [_d4G4] | Af2f z4 | z2 ab af e_A | f2 _Ae z4 | 
_A2 f2 Af2A | f2 _Ae z4 | _ag fg za gf | d3d4z | z8 | z8 | 


